X:1
T:Title
%%score ( 1 2 ) { 3 | 4 }
L:1/8
Q:1/4=100
M:6/8
K:Ab
V:1 treble nm="Grand Piano, Soprano"
V:2 treble 
V:3 bass nm="Choir Pad, Jesus Will Save You Now"
V:4 bass 
V:1
 [CE][CE][CE] [CE][A,C][CE] | [CA]2 [DB] [Ec]3 | [DB]>[DB][DB] [DB]2 [Ec] | A2- [DA-] [CA]3 | %4
w: By~Howard~E.~Smith * * * * *||||
 [CE][CE][CE] [CE][A,C][CE] | [CA]2 [DB] [Ec]3 | [DB]>[DB][DB] [DB]2 [Ec] | A2- [DA-] [CA]3 | %8
w: ||||
 [DF]>[Fd][Fd] [Fd]2 [DF] | [CE]>[Ec][Ec] [Ec]3 | [EB]>[E=A][EB] [Ge]2 [Gd] | [Ac]6 | %12
w: ||||
 [CE]>[B,=D][CE] [Ec][D_c][E=c] | [DF]2 [DF] [FB]3 | [EA]>[EG][EA] [Ec]2 [DB] | A2- [DA-] [CA]3- | %16
w: ||||
 [CA]6 |] %17
w: |
V:2
 x6 | x6 | x6 | .C3 z3 | x6 | x6 | x6 | .C3 z3 | x6 | x6 | x6 | x6 | x6 | x6 | x6 | .C3 z3 | x6 |] %17
V:3
 A,A,A, A,E,A, | E,2 A, A,3 | G,>G,G, G,2 G, | A,2 F, .E,3 | A,A,A, A,E,A, | E,2 A, A,3 | %6
 G,>G,G, G,2 G, | A,2 F, .E,3 | A,>A,A, A,2 A, | A,>A,A, A,3 | G,>_G,=G, B,2[K:treble] E | %11
 E2 E .E3 | A,>[K:bass]A,A, A,A,A, | A,2 A,[K:treble] D3 | C>B,C A,2[K:bass] G, | A,2 F, E,3- | %16
 E,6 |] %17
V:4
 A,,A,,A,, A,,A,,A,, | A,,2 A,, A,,3 | E,>E,E, E,2 E, | A,,6 | A,,A,,A,, A,,A,,A,, | %5
 A,,2 A,, A,,3 | E,>E,E, E,2 E, | A,,6 | D,>D,D, D,2 D, | A,,>A,,A,, A,,3 | E,>E,E, E,2 E, | %11
 A,2 A, .A,3 | A,,>A,,A,, A,,A,,A,, | D,2 D, B,,3 | E,>E,E, E,2 E, | A,,6- | A,,6 |] %17

